X: 1
T: Ve David (in E)
O: Israel
Z: 1997 by John Chambers <jc@trillian.mit.edu> http://trillian.mit.edu/~jc/music/abc
K:C
M: 4/4
L: 1/8
K: Ephr^G=F
|: "E"EB Bc Bc BA | "Dm"GA GF ED "E"E2 :|
w: Ve Da-vid ye-fe ey-na-yim, hu' ro-'e ba-sho-sha-nim.
E/ || "Am"EA AA BA "E"B2 | EB Bd "Am"c/B/A "E"B2 ||
w: Hi-ka Sha-ul be-a-la-fav, ve Da-vid be-ri-ve-vo-tav.
|| "Dm"GG G2 A2 GF | "E"E8 || "E"[GB][GB] [G2B2] "Dm"[A2c2] [GB][FA] | "E"[B8E8G8] ||
w: Ben yi-shai chai ve-kay-yam.  Ben yi-shai chai ve-kay-yam.
